X: 1764
T: April Storm
R: jig
M: 6/8
K: Ddorian
|:d2 d2 Ac|d2 d2 cd|efe dcA|efe dcA|
d2 d2 Ac|d2d cde|fed cAG|1 EDC D2A:|2 EDC D3||
|:D3 EDC|DE/F/G A2B|c2 c2 Ac|AcA GEC|
D3 EDC|DE/F/G Ace|fed cAG|1 EDC D3:|2 EDC D2A||

